X:1
T:More Like Thee
T:More Like Thee
T:John Henry Showalter, 1902
T:Frank Marion Davis, 1886
T:Public Domain Courtesy of the Cyber Hymnal™
C:John Henry Showalter, 1902
Z:Public Domain
Z:Courtesy of the Cyber Hymnal™
%%score ( 1 2 ) ( 3 4 )
L:1/8
Q:1/4=100
M:4/4
K:G
V:1 treble 
V:2 treble 
V:3 bass 
V:4 bass 
V:1
 G>[GB] | [Gd]3 [Ge] [Gd][GB] [FA]>[FB] | G6 G>G | [FA]3 [FA] [EG]2 [FA]2 | [GB]6 G>[GB] | %5
w: 1.~More like|Thee, O Sav- ior, let me|be, More like|Thee from day to|day; Ne- ver|
w: 2.~More like|Thee, O Sav- ior, let me|be, Pure with-|out, and pure with-|in; Keep me|
w: 3.~More like|Thee, O Sav- ior, let me|be, All my|pil- grim jour- ney|thro’; Meek and|
 [Gd]3 [Ge] [Gd][GB] [FA]>[=FB] | [Ec]6 [Ge]>[Ge] | [Gd]3 [GB] [FA]2 [FB]2 | G6 || %9
w: let me from Thy foot- steps|stray, Keep me|in the nar- row|way.|
w: ev- er from the ways of|sin, I the|crown of life would|win.|
w: low- ly, ev- er kind and|true, Like Thy-|self in all I|do.|
"^Refrain" [GB]>[Gc] | d6 [Ge]>[Gd] | G6 [DG]>[DG] | [FA]3 [FA] [EG]2 [FA]2 | [GB]6 G>[GB] | %14
w: |||||
w: More like|Thee, more like|Thee, More like|Thee, O Christ, like|Thee; By Thy|
w: |||||
 [Gd]3 [Ge] [Gd][GB] [FA]>[=FB] | [Ec]6 [Ge]2 | [Gd]3 [GB] [FA]2 [FB]2 | [DG]6 |] %18
w: ||||
w: grace, O let me day by|day Grow|more and more like|Thee.|
w: ||||
V:2
 G3/2 x/ | x8 | G6 G>G | x8 | x6 G3/2 x/ | x8 | x8 | x8 | G6 || x2 | (G>GG>G G2) x2 | %11
 (D>DE>E D2) x2 | x8 | x6 G3/2 x/ | x8 | x8 | x8 | x6 |] %18
V:3
 [G,B,]>G, | [G,B,]3 [G,C] [G,B,][G,D] [D,C]>[D,C] | [G,B,]6 [G,B,]>[G,B,] | %3
w: ~ ~|~ ~ ~ ~ ~ ~|~ ~ ~|
 [D,D]3 [D,D] [E,B,]2 [D,D]2 | [G,D]6 [G,B,]>G, | [G,B,]3 [G,C] [G,B,][G,D] [D,D]>G, | %6
w: ~ ~ ~ ~|~ ~ ~|~ ~ ~ ~ ~ ~|
 [C,G,]6 [C,C]>[C,C] | [D,B,]3 [D,D] [D,C]2 [D,D]2 | [G,B,]6 || G,>[G,A,] | %10
w: ~ ~ ~|~ ~ ~ ~|~|~ ~|
 [G,B,]>[G,B,] [G,B,]>[G,B,] [G,B,]2 [G,C]>[G,B,] | %11
w: ~ yes, more like Thee, ~ ~|
 [G,B,]>[G,B,] [C,C]>[C,C] [G,,G,B,]2 [G,B,]>[G,B,] | [D,D]3 [D,D] [E,B,]2 [D,D]2 | %13
w: ~ yes, more like Thee, * *||
 [G,D]6 [G,B,]>G, | [G,B,]3 [G,C] [G,B,][G,D] [D,D]>G, | [C,G,]6 [C,C]2 | %16
w: |||
 [D,B,]3 [D,D] [D,C]2 [D,D]2 | [G,,G,B,]6 |] %18
w: ||
V:4
 x3/2 G,/ | x8 | x8 | x8 | x15/2 G,/ | x15/2 G,/ | x8 | x8 | x6 || G,3/2 x/ | x8 | x8 | x8 | %13
 x15/2 G,/ | x15/2 G,/ | x8 | x8 | x6 |] %18

